flaticon/travel/passport.svg

<svg xmlns="http://www.w3.org/2000/svg" width="32" height="32" viewBox="0 0 24 24">
    <path d="M 18.476562 0 L 4 0 C 3.777344 0 3.601562 0.179688 3.601562 0.398438 L 3.601562 23.601562 C 3.601562 23.820312 3.777344 24 4 24 L 18.476562 24 C 19.535156 24 20.398438 23.136719 20.398438 22.074219 L 20.398438 1.925781 C 20.398438 0.863281 19.535156 0 18.476562 0 Z M 19.601562 22.074219 C 19.601562 22.695312 19.09375 23.199219 18.476562 23.199219 L 4.398438 23.199219 L 4.398438 0.800781 L 18.476562 0.800781 C 19.09375 0.800781 19.601562 1.304688 19.601562 1.925781 Z M 19.601562 22.074219"/>
    <path d="M16.96875 4.570312C16.957031 4.550781 16.941406 4.542969 16.929688 4.527344 15.753906 3.289062 14.121094 2.496094 12.300781 2.414062L12.292969 2.40625 12 2.398438 11.707031 2.40625 11.699219 2.414062C9.878906 2.496094 8.246094 3.289062 7.070312 4.527344 7.058594 4.542969 7.039062 4.550781 7.027344 4.570312 7.027344 4.574219 7.027344 4.578125 7.023438 4.578125 5.894531 5.792969 5.199219 7.414062 5.199219 9.199219 5.199219 10.917969 5.84375 12.480469 6.898438 13.679688 6.902344 13.6875 6.902344 13.691406 6.90625 13.699219 6.921875 13.722656 6.945312 13.738281 6.96875 13.757812 8.148438 15.0625 9.824219 15.902344 11.699219 15.984375L11.707031 15.992188 12 16 12.292969 15.992188 12.300781 15.984375C14.1875 15.902344 15.871094 15.050781 17.050781 13.734375 17.066406 13.722656 17.082031 13.714844 17.09375 13.699219 17.097656 13.691406 17.097656 13.6875 17.101562 13.679688 18.15625 12.480469 18.800781 10.917969 18.800781 9.199219 18.800781 7.414062 18.105469 5.792969 16.976562 4.578125 16.972656 4.578125 16.972656 4.574219 16.96875 4.570312zM10.691406 3.347656C10.136719 3.949219 9.667969 4.625 9.308594 5.347656 8.859375 5.183594 8.425781 4.980469 8.007812 4.730469 8.757812 4.0625 9.675781 3.574219 10.691406 3.347656zM7.4375 5.316406C7.929688 5.625 8.445312 5.878906 8.984375 6.082031 8.652344 6.941406 8.453125 7.855469 8.410156 8.800781L6.019531 8.800781C6.109375 7.476562 6.625 6.269531 7.4375 5.316406zM7.3125 12.9375C6.570312 12.007812 6.105469 10.855469 6.019531 9.601562L8.410156 9.601562C8.453125 10.46875 8.621094 11.316406 8.90625 12.121094 8.351562 12.332031 7.820312 12.605469 7.3125 12.9375zM7.859375 13.53125C8.292969 13.261719 8.742188 13.039062 9.214844 12.859375 9.585938 13.65625 10.085938 14.394531 10.695312 15.050781 9.609375 14.808594 8.636719 14.273438 7.859375 13.53125zM11.601562 14.835938C10.925781 14.1875 10.382812 13.433594 9.980469 12.609375 10.507812 12.472656 11.046875 12.386719 11.601562 12.359375zM11.601562 11.558594C10.941406 11.589844 10.292969 11.691406 9.667969 11.867188 9.40625 11.144531 9.25 10.382812 9.210938 9.601562L11.601562 9.601562zM11.601562 8.800781L9.210938 8.800781C9.253906 7.941406 9.4375 7.105469 9.746094 6.324219 10.347656 6.488281 10.96875 6.585938 11.601562 6.613281zM11.601562 5.8125C11.085938 5.789062 10.578125 5.710938 10.082031 5.585938 10.472656 4.84375 10.980469 4.160156 11.601562 3.5625zM15.992188 4.730469C15.574219 4.980469 15.140625 5.183594 14.691406 5.347656 14.332031 4.625 13.867188 3.949219 13.308594 3.347656 14.324219 3.574219 15.242188 4.0625 15.992188 4.730469zM12.398438 3.5625C13.019531 4.160156 13.527344 4.84375 13.917969 5.585938 13.421875 5.710938 12.914062 5.789062 12.398438 5.8125zM12.398438 6.613281C13.03125 6.585938 13.652344 6.488281 14.253906 6.324219 14.5625 7.105469 14.746094 7.941406 14.789062 8.800781L12.398438 8.800781zM12.398438 9.601562L14.789062 9.601562C14.75 10.382812 14.59375 11.144531 14.332031 11.867188 13.707031 11.691406 13.058594 11.589844 12.398438 11.558594zM12.398438 12.359375C12.953125 12.386719 13.492188 12.472656 14.019531 12.609375 13.617188 13.433594 13.074219 14.1875 12.398438 14.835938 12.398438 14.835938 12.398438 12.359375 12.398438 12.359375zM13.308594 15.050781C13.914062 14.394531 14.414062 13.65625 14.789062 12.859375 15.257812 13.039062 15.707031 13.261719 16.140625 13.53125 15.363281 14.273438 14.390625 14.808594 13.308594 15.050781zM16.6875 12.9375C16.179688 12.605469 15.648438 12.332031 15.09375 12.121094 15.378906 11.316406 15.546875 10.46875 15.589844 9.601562L17.980469 9.601562C17.894531 10.855469 17.429688 12.007812 16.6875 12.9375zM15.589844 8.800781C15.546875 7.855469 15.347656 6.941406 15.015625 6.082031 15.554688 5.878906 16.070312 5.625 16.5625 5.316406 17.375 6.269531 17.890625 7.476562 17.980469 8.800781zM18 18L6 18C5.777344 18 5.601562 18.179688 5.601562 18.398438 5.601562 18.621094 5.777344 18.800781 6 18.800781L18 18.800781C18.222656 18.800781 18.398438 18.621094 18.398438 18.398438 18.398438 18.179688 18.222656 18 18 18zM18 20L6 20C5.777344 20 5.601562 20.179688 5.601562 20.398438 5.601562 20.621094 5.777344 20.800781 6 20.800781L18 20.800781C18.222656 20.800781 18.398438 20.621094 18.398438 20.398438 18.398438 20.179688 18.222656 20 18 20zM18 20"/>
</svg>

<svg xmlns="http://www.w3.org/2000/svg" width="32" height="32" viewBox="0 0 24 24">
    <path d="M18.477 0H4a.398.398 0 0 0-.398.398v23.204c0 .218.175.398.398.398h14.477a1.926 1.926 0 0 0 1.921-1.926V1.926A1.926 1.926 0 0 0 18.477 0zm1.125 22.074c0 .621-.508 1.125-1.125 1.125H4.398V.801h14.079c.617 0 1.125.504 1.125 1.125zm0 0"/>
    <path d="M16.969 4.57c-.012-.02-.028-.027-.04-.043a6.787 6.787 0 0 0-4.628-2.113l-.008-.008L12 2.398l-.293.008-.008.008A6.787 6.787 0 0 0 7.07 4.527c-.011.016-.03.024-.043.043 0 .004 0 .008-.004.008a6.757 6.757 0 0 0-.125 9.102l.008.02c.016.023.04.038.063.058a6.759 6.759 0 0 0 4.73 2.226l.008.008L12 16l.293-.008.008-.008a6.757 6.757 0 0 0 4.75-2.25c.015-.011.031-.02.043-.035l.008-.02a6.757 6.757 0 0 0-.125-9.1c-.004 0-.004-.005-.008-.009zM10.69 3.348a8.63 8.63 0 0 0-1.382 2 7.607 7.607 0 0 1-1.301-.618 6.006 6.006 0 0 1 2.683-1.382zM7.437 5.316a8.633 8.633 0 0 0 1.547.766 8.619 8.619 0 0 0-.574 2.719H6.02a5.98 5.98 0 0 1 1.418-3.485zm-.125 7.622A5.988 5.988 0 0 1 6.02 9.601h2.39a8.85 8.85 0 0 0 .496 2.52 8.3 8.3 0 0 0-1.594.816zm.547.593c.434-.27.883-.492 1.356-.672a8.493 8.493 0 0 0 1.48 2.192 5.993 5.993 0 0 1-2.836-1.52zm3.743 1.305a7.852 7.852 0 0 1-1.622-2.227 8.01 8.01 0 0 1 1.622-.25zm0-3.277a8.647 8.647 0 0 0-1.934.308 7.79 7.79 0 0 1-.457-2.265h2.39zm0-2.758H9.21c.043-.86.226-1.696.535-2.477a8.428 8.428 0 0 0 1.856.29zm0-2.989a7.633 7.633 0 0 1-1.52-.226 7.924 7.924 0 0 1 1.52-2.024zm4.39-1.082c-.418.25-.851.454-1.3.618a8.511 8.511 0 0 0-1.383-2 6.006 6.006 0 0 1 2.683 1.382zm-3.594-1.168a7.924 7.924 0 0 1 1.52 2.024 7.633 7.633 0 0 1-1.52.226zm0 3.051a8.428 8.428 0 0 0 1.856-.289c.309.781.492 1.617.535 2.477H12.4zm0 2.989h2.391a7.79 7.79 0 0 1-.457 2.265 8.647 8.647 0 0 0-1.934-.308zm0 2.757a8.01 8.01 0 0 1 1.622.25 7.852 7.852 0 0 1-1.622 2.227v-2.477zm.91 2.692a8.695 8.695 0 0 0 1.481-2.192c.469.18.918.403 1.352.672a5.999 5.999 0 0 1-2.832 1.52zm3.38-2.114a8.3 8.3 0 0 0-1.594-.816 8.85 8.85 0 0 0 .496-2.52h2.39a5.988 5.988 0 0 1-1.293 3.336zM15.59 8.802a8.619 8.619 0 0 0-.574-2.719 8.633 8.633 0 0 0 1.546-.766 5.98 5.98 0 0 1 1.418 3.485zm0 0M18 18H6a.398.398 0 0 0-.398.398c0 .223.175.403.398.403h12c.223 0 .398-.18.398-.403A.398.398 0 0 0 18 18zm0 0M18 20H6a.398.398 0 0 0-.398.398c0 .223.175.403.398.403h12c.223 0 .398-.18.398-.403A.398.398 0 0 0 18 20zm0 0"/>
</svg>
